public/img/ui/blade.svg

<svg fill="none" height="40" viewBox="0 0 40 40" width="40" xmlns="http://www.w3.org/2000/svg" xmlns:xlink="http://www.w3.org/1999/xlink"><clipPath id="a"><path d="m0 0h40v40h-40z"/></clipPath><g clip-path="url(#a)" stroke="#ff2d20" stroke-linecap="round" stroke-linejoin="round" stroke-width="2"><path d="m9.03003 26.3989 7.31997-4.27v16.87l-7.31997-4.06v-8.53z"/><path d="m9.03003 9.52734 7.31997 4.26996v8.33l-7.31997 4.27zm14.62997 16.86996 7.32 4.06-14.63 8.53v-8.53l7.32-4.06z"/><path d="m30.9699 22.1289v8.33l-7.32-4.06z"/><path d="m23.6599 9.52734 7.32 4.26996-7.32 4.06z"/><path d="m30.9699 5.26781v8.52999l-7.32-4.26999 7.32-4.27z"/><path d="m23.6599 17.8694v8.53l7.32-4.27-7.32-4.27z"/><path d="m16.3401 22.1272 7.32 4.27v-8.53l-7.32 4.27z"/><path d="m23.6599.998281v8.529999l7.32-4.27-7.32-4.269999z"/><path d="m16.34 5.27-7.31998 4.27 7.31998 4.27 7.32-4.27v-8.54z"/><path d="m16.3401 22.1289 7.32 4.27-7.32 4.06z"/></g></svg>

<svg width="40" height="40" viewBox="0 0 40 40" fill="none" xmlns="http://www.w3.org/2000/svg">
<g clip-path="url(#clip0_834_1149)">
<path d="M9.03003 26.3989L16.35 22.1289V38.9989L9.03003 34.9389V26.4089V26.3989Z" stroke="#FF2D20" stroke-width="2" stroke-linecap="round" stroke-linejoin="round"/>
<path d="M9.03003 9.52734L16.35 13.7973V22.1273L9.03003 26.3973V9.52734ZM23.66 26.3973L30.98 30.4573L16.35 38.9873V30.4573L23.67 26.3973H23.66Z" stroke="#FF2D20" stroke-width="2" stroke-linecap="round" stroke-linejoin="round"/>
<path d="M30.9699 22.1289V30.4589L23.6499 26.3989L30.9699 22.1289Z" stroke="#FF2D20" stroke-width="2" stroke-linecap="round" stroke-linejoin="round"/>
<path d="M23.6599 9.52734L30.9799 13.7973L23.6599 17.8573V9.52734Z" stroke="#FF2D20" stroke-width="2" stroke-linecap="round" stroke-linejoin="round"/>
<path d="M30.9699 5.26781V13.7978L23.6499 9.52781L30.9699 5.25781V5.26781Z" stroke="#FF2D20" stroke-width="2" stroke-linecap="round" stroke-linejoin="round"/>
<path d="M23.6599 17.8694V26.3994L30.9799 22.1294L23.6599 17.8594V17.8694Z" stroke="#FF2D20" stroke-width="2" stroke-linecap="round" stroke-linejoin="round"/>
<path d="M16.3401 22.1272L23.6601 26.3972V17.8672L16.3401 22.1372V22.1272Z" stroke="#FF2D20" stroke-width="2" stroke-linecap="round" stroke-linejoin="round"/>
<path d="M23.6599 0.998281V9.52828L30.9799 5.25828L23.6599 0.988281V0.998281Z" stroke="#FF2D20" stroke-width="2" stroke-linecap="round" stroke-linejoin="round"/>
<path d="M16.34 5.27L9.02002 9.54L16.34 13.81L23.66 9.54V1L16.34 5.27Z" stroke="#FF2D20" stroke-width="2" stroke-linecap="round" stroke-linejoin="round"/>
<path d="M16.3401 22.1289L23.6601 26.3989L16.3401 30.4589V22.1289Z" stroke="#FF2D20" stroke-width="2" stroke-linecap="round" stroke-linejoin="round"/>
</g>
<defs>
<clipPath id="clip0_834_1149">
<rect width="40" height="40" fill="white"/>
</clipPath>
</defs>
</svg>
